dist/assets/img/questions/4/answers/3.svg

<svg width="551" height="264" viewBox="0 0 551 264" fill="none" xmlns="http://www.w3.org/2000/svg">
<g filter="url(#filter0_di_1495_68803)">
<path fill-rule="evenodd" clip-rule="evenodd" d="M67.2274 28C63.161 28 59.7416 31.0504 59.2793 35.0904L40.0529 203.09C39.5095 207.838 43.2224 212 48.001 212H468.839C472.905 212 476.325 208.95 476.787 204.91L479.439 181.741C479.915 177.58 483.549 174.431 487.633 175.361C497.82 177.68 506.372 183.341 510.694 186.201C510.753 186.241 510.83 186.184 510.81 186.115C507.684 175.337 496.789 167.542 487.571 163.043C484.279 161.437 482.153 158.02 482.57 154.382L496.014 36.9096C496.557 32.162 492.844 28 488.065 28H67.2274Z" fill="#FFF0CB"/>
</g>
<defs>
<filter id="filter0_di_1495_68803" x="0" y="0" width="550.812" height="264" filterUnits="userSpaceOnUse" color-interpolation-filters="sRGB">
<feFlood flood-opacity="0" result="BackgroundImageFix"/>
<feColorMatrix in="SourceAlpha" type="matrix" values="0 0 0 0 0 0 0 0 0 0 0 0 0 0 0 0 0 0 127 0" result="hardAlpha"/>
<feOffset dy="12"/>
<feGaussianBlur stdDeviation="20"/>
<feComposite in2="hardAlpha" operator="out"/>
<feColorMatrix type="matrix" values="0 0 0 0 1 0 0 0 0 1 0 0 0 0 1 0 0 0 1 0"/>
<feBlend mode="normal" in2="BackgroundImageFix" result="effect1_dropShadow_1495_68803"/>
<feBlend mode="normal" in="SourceGraphic" in2="effect1_dropShadow_1495_68803" result="shape"/>
<feColorMatrix in="SourceAlpha" type="matrix" values="0 0 0 0 0 0 0 0 0 0 0 0 0 0 0 0 0 0 127 0" result="hardAlpha"/>
<feOffset dy="-4"/>
<feGaussianBlur stdDeviation="4"/>
<feComposite in2="hardAlpha" operator="arithmetic" k2="-1" k3="1"/>
<feColorMatrix type="matrix" values="0 0 0 0 0.883659 0 0 0 0 0.635314 0 0 0 0 0.0558422 0 0 0 0.4 0"/>
<feBlend mode="normal" in2="shape" result="effect2_innerShadow_1495_68803"/>
</filter>
</defs>
</svg>

<svg width="551" height="264" viewBox="0 0 551 264" fill="none" xmlns="http://www.w3.org/2000/svg"><g filter="url(#filter0_di_1495_68803)"><path fill-rule="evenodd" clip-rule="evenodd" d="M67.227 28a8 8 0 00-7.948 7.09l-19.226 168C39.51 207.838 43.223 212 48 212h420.838a8 8 0 007.948-7.09l2.652-23.169c.476-4.161 4.11-7.31 8.194-6.38 10.187 2.319 18.739 7.98 23.061 10.84.059.04.136-.017.116-.086-3.126-10.778-14.021-18.573-23.239-23.072-3.292-1.606-5.418-5.023-5.001-8.661L496.014 36.91c.543-4.748-3.17-8.91-7.949-8.91H67.227z" fill="#FFF0CB"/></g><defs><filter id="filter0_di_1495_68803" x="0" y="0" width="550.812" height="264" filterUnits="userSpaceOnUse" color-interpolation-filters="sRGB"><feFlood flood-opacity="0" result="BackgroundImageFix"/><feColorMatrix in="SourceAlpha" values="0 0 0 0 0 0 0 0 0 0 0 0 0 0 0 0 0 0 127 0" result="hardAlpha"/><feOffset dy="12"/><feGaussianBlur stdDeviation="20"/><feComposite in2="hardAlpha" operator="out"/><feColorMatrix values="0 0 0 0 1 0 0 0 0 1 0 0 0 0 1 0 0 0 1 0"/><feBlend in2="BackgroundImageFix" result="effect1_dropShadow_1495_68803"/><feBlend in="SourceGraphic" in2="effect1_dropShadow_1495_68803" result="shape"/><feColorMatrix in="SourceAlpha" values="0 0 0 0 0 0 0 0 0 0 0 0 0 0 0 0 0 0 127 0" result="hardAlpha"/><feOffset dy="-4"/><feGaussianBlur stdDeviation="4"/><feComposite in2="hardAlpha" operator="arithmetic" k2="-1" k3="1"/><feColorMatrix values="0 0 0 0 0.883659 0 0 0 0 0.635314 0 0 0 0 0.0558422 0 0 0 0.4 0"/><feBlend in2="shape" result="effect2_innerShadow_1495_68803"/></filter></defs></svg>
